icons/src/rectangle.grid.2x2.svg

<!--Generator: Apple Native CoreSVG 341-->
<!DOCTYPE svg  PUBLIC '-//W3C//DTD SVG 1.1//EN'  'http://www.w3.org/Graphics/SVG/1.1/DTD/svg11.dtd'>
<svg version="1.1" viewBox="0 0 22.08 17.998" xmlns="http://www.w3.org/2000/svg">
 <rect width="22.08" height="17.998" opacity="0"/>
 <path d="m13.535 17.998h6.3183c1.2403 0 1.8653-0.6152 1.8653-1.9042v-4.375c0-1.2793-0.625-1.9044-1.8653-1.9044h-6.3183c-1.2403 0-1.8653 0.62505-1.8653 1.9044v4.375c0 1.289 0.625 1.9042 1.8653 1.9042zm0.0293-1.3769c-0.3516 0-0.5176-0.1758-0.5176-0.5273v-4.3653c0-0.3613 0.166-0.5371 0.5176-0.5371h6.2695c0.3418 0 0.5078 0.1758 0.5078 0.5371v4.3653c0 0.3515-0.166 0.5273-0.5078 0.5273z" fill="#fff"/>
 <path d="m1.8652 17.998h6.3184c1.2402 0 1.8652-0.6152 1.8652-1.9042v-4.375c0-1.2793-0.62497-1.9044-1.8652-1.9044h-6.3184c-1.2402 0-1.8652 0.62505-1.8652 1.9044v4.375c0 1.289 0.625 1.9042 1.8652 1.9042zm0.01954-1.3769c-0.3418 0-0.50782-0.1758-0.50782-0.5273v-4.3653c0-0.3613 0.16602-0.5371 0.50782-0.5371h6.2695c0.34179 0 0.51758 0.1758 0.51758 0.5371v4.3653c0 0.3515-0.17579 0.5273-0.51758 0.5273z" fill="#fff"/>
 <path d="m13.535 8.2031h6.3183c1.2403 0 1.8653-0.625 1.8653-1.9141v-4.3652c0-1.2891-0.625-1.9043-1.8653-1.9043h-6.3183c-1.2403 0-1.8653 0.61523-1.8653 1.9043v4.3652c0 1.2891 0.625 1.9141 1.8653 1.9141zm0.0293-1.377c-0.3516 0-0.5176-0.17578-0.5176-0.53711v-4.3652c0-0.35156 0.166-0.52735 0.5176-0.52735h6.2695c0.3418 0 0.5078 0.17579 0.5078 0.52735v4.3652c0 0.36133-0.166 0.53711-0.5078 0.53711z" fill="#fff"/>
 <path d="m1.8652 8.2031h6.3184c1.2402 0 1.8652-0.625 1.8652-1.9141v-4.3652c0-1.2891-0.62497-1.9043-1.8652-1.9043h-6.3184c-1.2402 0-1.8652 0.61523-1.8652 1.9043v4.3652c0 1.2891 0.625 1.9141 1.8652 1.9141zm0.01954-1.377c-0.3418 0-0.50782-0.17578-0.50782-0.53711v-4.3652c0-0.35156 0.16602-0.52735 0.50782-0.52735h6.2695c0.34179 0 0.51758 0.17579 0.51758 0.52735v4.3652c0 0.36133-0.17579 0.53711-0.51758 0.53711z" fill="#fff"/>
</svg>

<?xml version="1.0" encoding="UTF-8"?>
<!--Generator: Apple Native CoreSVG 341-->
<!DOCTYPE svg
PUBLIC "-//W3C//DTD SVG 1.1//EN"
       "http://www.w3.org/Graphics/SVG/1.1/DTD/svg11.dtd">
<svg version="1.1" xmlns="http://www.w3.org/2000/svg" xmlns:xlink="http://www.w3.org/1999/xlink" viewBox="0 0 22.0801 17.998">
 <g>
  <rect height="17.998" opacity="0" width="22.0801" x="0" y="0"/>
  <path d="M13.5352 17.998L19.8535 17.998C21.0938 17.998 21.7188 17.3828 21.7188 16.0938L21.7188 11.7188C21.7188 10.4395 21.0938 9.81445 19.8535 9.81445L13.5352 9.81445C12.2949 9.81445 11.6699 10.4395 11.6699 11.7188L11.6699 16.0938C11.6699 17.3828 12.2949 17.998 13.5352 17.998ZM13.5645 16.6211C13.2129 16.6211 13.0469 16.4453 13.0469 16.0938L13.0469 11.7285C13.0469 11.3672 13.2129 11.1914 13.5645 11.1914L19.834 11.1914C20.1758 11.1914 20.3418 11.3672 20.3418 11.7285L20.3418 16.0938C20.3418 16.4453 20.1758 16.6211 19.834 16.6211Z" fill="white"/>
  <path d="M1.86523 17.998L8.18359 17.998C9.42383 17.998 10.0488 17.3828 10.0488 16.0938L10.0488 11.7188C10.0488 10.4395 9.42383 9.81445 8.18359 9.81445L1.86523 9.81445C0.625 9.81445 0 10.4395 0 11.7188L0 16.0938C0 17.3828 0.625 17.998 1.86523 17.998ZM1.88477 16.6211C1.54297 16.6211 1.37695 16.4453 1.37695 16.0938L1.37695 11.7285C1.37695 11.3672 1.54297 11.1914 1.88477 11.1914L8.1543 11.1914C8.49609 11.1914 8.67188 11.3672 8.67188 11.7285L8.67188 16.0938C8.67188 16.4453 8.49609 16.6211 8.1543 16.6211Z" fill="white"/>
  <path d="M13.5352 8.20312L19.8535 8.20312C21.0938 8.20312 21.7188 7.57812 21.7188 6.28906L21.7188 1.92383C21.7188 0.634766 21.0938 0.0195312 19.8535 0.0195312L13.5352 0.0195312C12.2949 0.0195312 11.6699 0.634766 11.6699 1.92383L11.6699 6.28906C11.6699 7.57812 12.2949 8.20312 13.5352 8.20312ZM13.5645 6.82617C13.2129 6.82617 13.0469 6.65039 13.0469 6.28906L13.0469 1.92383C13.0469 1.57227 13.2129 1.39648 13.5645 1.39648L19.834 1.39648C20.1758 1.39648 20.3418 1.57227 20.3418 1.92383L20.3418 6.28906C20.3418 6.65039 20.1758 6.82617 19.834 6.82617Z" fill="white"/>
  <path d="M1.86523 8.20312L8.18359 8.20312C9.42383 8.20312 10.0488 7.57812 10.0488 6.28906L10.0488 1.92383C10.0488 0.634766 9.42383 0.0195312 8.18359 0.0195312L1.86523 0.0195312C0.625 0.0195312 0 0.634766 0 1.92383L0 6.28906C0 7.57812 0.625 8.20312 1.86523 8.20312ZM1.88477 6.82617C1.54297 6.82617 1.37695 6.65039 1.37695 6.28906L1.37695 1.92383C1.37695 1.57227 1.54297 1.39648 1.88477 1.39648L8.1543 1.39648C8.49609 1.39648 8.67188 1.57227 8.67188 1.92383L8.67188 6.28906C8.67188 6.65039 8.49609 6.82617 8.1543 6.82617Z" fill="white"/>
 </g>
</svg>
